X: 7652
T: Coldside, The
R: jig
M: 6/8
K: Aminor
|:a3 e2d|cBc Ace|g3 d2c|Bge dBG|
c3 a3|ba^g a2f|efe dcB|1 cAA A2e:|2 cAA A2B||
|:cdc ABc|edc edc|BcB GAB|dcB dcB|
ceg Bdf|Ace a2f|efe dcB|1 cAA A2B:|2 cAA A2e||

